docs/svg/wds-icons-quiz.svg

<svg xmlns="http://www.w3.org/2000/svg" viewBox="0 0 24 24">
  <path d="M5.59289152,5.17867796 C7.11755446,4.00335794 8.97474505,3.23795097 11,3.04692034 L11,1 C11,0.44771525 11.4477153,0 12,0 C12.5522847,0 13,0.44771525 13,1 L13,3.04691061 C14.324105,3.17168009 15.6000011,3.54346245 16.7654758,4.13975184 C17.2571463,4.39130418 17.4518005,4.99380532 17.2002482,5.4854758 C16.9486958,5.97714629 16.3461947,6.1718005 15.8545242,5.92024816 C14.6792772,5.318959 13.3624322,5 12,5 C9.8019913,5 7.80001024,5.83239617 6.29180658,7.19943876 C6.27752315,7.21569086 6.26262322,7.23159034 6.24710678,7.24710678 C6.21354758,7.28066598 6.17819657,7.31134132 6.14136171,7.33913279 C4.51387008,8.88715844 3.5,11.074197 3.5,13.5 C3.5,18.1977153 7.30228475,22 12,22 C16.6977153,22 20.5,18.1977153 20.5,13.5 C20.5,12.8532399 20.4280561,12.2214824 20.2873498,11.6322747 C20.159068,11.0950948 20.4905454,10.5556315 21.0277253,10.4273498 C21.5649052,10.299068 22.1043685,10.6305454 22.2326502,11.1677253 C22.4103113,11.9116809 22.5,12.6992601 22.5,13.5 C22.5,19.3022847 17.8022847,24 12,24 C6.19771525,24 1.5,19.3022847 1.5,13.5 C1.5,10.8316655 2.49350297,8.39693237 4.13104803,6.54526159 L2.5,4.91421356 L1.70710678,5.70710678 C1.31658249,6.09763107 0.683417511,6.09763107 0.292893219,5.70710678 C-0.0976310729,5.31658249 -0.0976310729,4.68341751 0.292893219,4.29289322 L3.29289322,1.29289322 C3.68341751,0.902368927 4.31658249,0.902368927 4.70710678,1.29289322 C5.09763107,1.68341751 5.09763107,2.31658249 4.70710678,2.70710678 L3.91421356,3.5 L5.59289152,5.17867796 Z M12.7071068,15.7071068 C12.3165825,16.0976311 11.6834175,16.0976311 11.2928932,15.7071068 L8.29289322,12.7071068 C7.90236893,12.3165825 7.90236893,11.6834175 8.29289322,11.2928932 C8.68341751,10.9023689 9.31658249,10.9023689 9.70710678,11.2928932 L12,13.5857864 L22.2928932,3.29289322 C22.6834175,2.90236893 23.3165825,2.90236893 23.7071068,3.29289322 C24.0976311,3.68341751 24.0976311,4.31658249 23.7071068,4.70710678 L12.7071068,15.7071068 Z"/>
</svg>

<svg xmlns="http://www.w3.org/2000/svg" viewBox="0 0 24 24">
  <path d="M5.593 5.179A10.448 10.448 0 0 1 11 3.047V1a1 1 0 0 1 2 0v2.047c1.324.125 2.6.496 3.765 1.093a1 1 0 1 1-.91 1.78A8.449 8.449 0 0 0 12 5a8.47 8.47 0 0 0-5.708 2.2 1.015 1.015 0 0 1-.15.14A8.475 8.475 0 0 0 3.5 13.5c0 4.698 3.802 8.5 8.5 8.5s8.5-3.802 8.5-8.5c0-.647-.072-1.279-.213-1.868a1 1 0 1 1 1.946-.464c.177.744.267 1.531.267 2.332C22.5 19.302 17.802 24 12 24S1.5 19.302 1.5 13.5c0-2.668.994-5.103 2.631-6.955L2.5 4.915l-.793.792A1 1 0 0 1 .293 4.293l3-3a1 1 0 1 1 1.414 1.414l-.793.793 1.679 1.679zm7.114 10.528a1 1 0 0 1-1.414 0l-3-3a1 1 0 0 1 1.414-1.414L12 13.586 22.293 3.293a1 1 0 0 1 1.414 1.414l-11 11z"/>
</svg>
